svg/u1f320.svg

<svg viewBox="0 0 128 128" xmlns="http://www.w3.org/2000/svg">
  <g>
    <linearGradient id="SVGID_1_" gradientUnits="userSpaceOnUse" x1="64" x2="64" y1="155.5578" y2="-0.2438">
      <stop offset="0" stop-color="#3367D6"/>
      <stop offset="0.5213" stop-color="#352893"/>
      <stop offset="1" stop-color="#1A237E"/>
    </linearGradient>
    <path d="M116,124H12c-4.42,0-8-3.58-8-8V12c0-4.42,3.58-8,8-8h104c4.42,0,8,3.58,8,8v104 C124,120.42,120.42,124,116,124z" fill="url(#SVGID_1_)"/>
    <g>
      <linearGradient id="SVGID_2_" gradientUnits="userSpaceOnUse" x1="46.6245" x2="124.4939" y1="85.5401" y2="-3.7049">
        <stop offset="0" stop-color="#FFF7AF"/>
        <stop offset="1" stop-color="#FFF7AF" stop-opacity="0.1"/>
      </linearGradient>
      <path d="M34.15,69.14l40.47,22.92C87.88,57.62,107.55,34.57,124,20.08V12c0-3-1.65-5.61-4.1-6.98 C90,12.43,49.07,29.62,34.15,69.14z" fill="url(#SVGID_2_)"/>
      <linearGradient id="SVGID_3_" gradientUnits="userSpaceOnUse" x1="47.1363" x2="120.8935" y1="81.18" y2="13.3801">
        <stop offset="0.2537" stop-color="#FFFDE7"/>
        <stop offset="1" stop-color="#FFFDE7" stop-opacity="0"/>
      </linearGradient>
      <path d="M114.43,12.88C62.41,30.29,41,73.56,41,73.56L61.23,90.2c0,0,4.5-20.25,18.05-41.77 c10.98-17.43,28.3-28.56,35.99-33.86C116.18,13.95,115.48,12.53,114.43,12.88z" fill="url(#SVGID_3_)"/>
      <g>
        <linearGradient id="SVGID_4_" gradientUnits="userSpaceOnUse" x1="85.6579" x2="68.6853" y1="12.3247" y2="95.5714">
          <stop offset="5.221225e-03" stop-color="#4453AB" stop-opacity="0"/>
          <stop offset="1" stop-color="#3949AB"/>
        </linearGradient>
        <path d="M75.24,67.39c0.3-5.04,3.11-17.44,3.11-17.44c0.73-4.1-3-5.1-5.53-3.82 c-7.19,3.64-14.83,8.76-19.53,9.16c-5.6,0.48-6.26-5.54-6.18-8.76c-5.28,6.58-9.73,14.07-12.96,22.61l40.47,22.92 c12.84-33.36,31.71-56.03,47.83-70.59l1.55-1.38v-2.36C100.89,34.07,89.35,52.73,82.63,62.5C78.38,68.67,75,71.4,75.24,67.39z" fill="url(#SVGID_4_)"/>
      </g>
    </g>
    <g>
      <path d="M29.58,49.88L46.36,60.7c1.29,0.83,2.92,0.89,4.27,0.17l17.25-9.32c2.02-0.95,4.25,0.82,3.78,3 L66.2,72.98c-0.44,1.49-0.02,3.1,1.09,4.19L81.9,91.5c1.53,1.63,0.53,4.3-1.69,4.52l-19.72,1.09c-1.51,0.08-2.87,0.98-3.54,2.34 l-8.71,17.73c-1.07,1.96-3.92,1.83-4.82-0.21l-7.48-19.05c-0.57-1.45-1.89-2.46-3.43-2.64L13.42,93.1 c-2.19-0.42-2.95-3.16-1.29-4.65l15.32-12.24c1.2-0.96,1.78-2.49,1.52-4l-3.41-19.67C25.27,50.33,27.65,48.76,29.58,49.88z" fill="#FDD835"/>
      <path d="M39.79,66.36l-8.57-10.49c-0.46-0.6-1.3-1.58-0.29-2.25c0.8-0.53,2.32,0.84,2.32,0.84l9.36,6.77 c3.56,2.58,3.8,4.11,3.03,5.62C44.74,68.6,42.24,69.36,39.79,66.36z" fill="#FFFF8D"/>
      <path d="M64.23,72.85l4.71-14.05c0.22-0.72,0.66-1.94-0.52-2.21c-0.93-0.21-1.88,1.6-1.88,1.6l-6.32,8.98 c-1.96,2.56-2.79,4.98-1.85,6.72C59.63,76.2,62.7,76.59,64.23,72.85z" fill="#F4B400"/>
    </g>
    <g>
      <path clip-rule="evenodd" d="M118.09,63.75c-3.13-1.04-5.56-3.6-6.45-6.78 c-0.12-0.44-0.71-0.45-0.85-0.02c-1.03,3.15-3.57,5.59-6.76,6.49c-0.41,0.12-0.42,0.68-0.02,0.81c3.14,1.04,5.57,3.59,6.45,6.76 c0.12,0.44,0.71,0.45,0.85,0.02c1.03-3.14,3.57-5.58,6.75-6.47C118.48,64.45,118.49,63.89,118.09,63.75z" fill="#FFF176" fill-rule="evenodd"/>
      <path clip-rule="evenodd" d="M42.71,30.83c-2.26-0.75-4.01-2.59-4.64-4.88 c-0.09-0.31-0.51-0.32-0.61-0.01c-0.74,2.27-2.57,4.02-4.87,4.67c-0.29,0.08-0.3,0.49-0.01,0.59c2.26,0.75,4.01,2.59,4.65,4.87 c0.09,0.32,0.51,0.33,0.61,0.01c0.74-2.26,2.57-4.02,4.86-4.66C42.99,31.33,43,30.92,42.71,30.83z" fill="#FFF9C4" fill-rule="evenodd"/>
      <circle clip-rule="evenodd" cx="12.36" cy="41.85" fill="#7BAAF7" fill-rule="evenodd" r="2.41"/>
      <circle clip-rule="evenodd" cx="59.23" cy="15.07" fill="#5C6BC0" fill-rule="evenodd" r="4.77"/>
      <circle clip-rule="evenodd" cx="109.42" cy="94.45" fill="#7986CB" fill-rule="evenodd" r="3.19"/>
      <circle clip-rule="evenodd" cx="98.9" cy="80.52" fill="#FFF176" fill-rule="evenodd" r="2.41"/>
      <circle clip-rule="evenodd" cx="19.67" cy="17.48" fill="#FFF176" fill-rule="evenodd" r="2.41"/>
      <circle clip-rule="evenodd" cx="69.65" cy="113.47" fill="#7BAAF7" fill-rule="evenodd" r="2.41"/>
    </g>
  </g>
</svg>

<svg viewBox="0 0 128 128" xmlns="http://www.w3.org/2000/svg">
  <defs>
    <linearGradient id="SVGID_1_" gradientUnits="userSpaceOnUse" x1="64" x2="64" y1="155.5578" y2="-0.2438">
      <stop offset="0" stop-color="#3367D6"/>
      <stop offset="0.5213" stop-color="#352893"/>
      <stop offset="1" stop-color="#1A237E"/>
    </linearGradient>
    <linearGradient id="SVGID_2_" gradientUnits="userSpaceOnUse" x1="46.6245" x2="124.4939" y1="85.5401" y2="-3.7049">
      <stop offset="0" stop-color="#FFF7AF"/>
      <stop offset="1" stop-color="#FFF7AF" stop-opacity="0.1"/>
    </linearGradient>
    <linearGradient id="SVGID_3_" gradientUnits="userSpaceOnUse" x1="47.1363" x2="120.8935" y1="81.18" y2="13.3801">
      <stop offset="0.2537" stop-color="#FFFDE7"/>
      <stop offset="1" stop-color="#FFFDE7" stop-opacity="0"/>
    </linearGradient>
    <linearGradient id="SVGID_4_" gradientUnits="userSpaceOnUse" x1="85.6579" x2="68.6853" y1="12.3247" y2="95.5714">
      <stop offset="5.221225e-03" stop-color="#4453AB" stop-opacity="0"/>
      <stop offset="1" stop-color="#3949AB"/>
    </linearGradient>
  </defs>
  <path d="M116,124 L12,124 C7.58,124 4,120.42 4,116 L4,12 C4,7.58 7.58,4 12,4 L116,4 C120.42,4 124,7.58 124,12 L124,116 C124,120.42 120.42,124 116,124 Z" fill="url(#SVGID_1_)"/>
  <path d="M34.15,69.14 L74.62,92.06 C87.88,57.62 107.55,34.57 124,20.08 L124,12 C124,9 122.35,6.39 119.9,5.02 C90,12.43 49.07,29.62 34.15,69.14 Z" fill="url(#SVGID_2_)"/>
  <path d="M114.43,12.88 C62.41,30.29 41,73.56 41,73.56 L61.23,90.2 C61.23,90.2 65.73,69.95 79.28,48.43 C90.26,31 107.58,19.87 115.27,14.57 C116.18,13.95 115.48,12.53 114.43,12.88 Z" fill="url(#SVGID_3_)"/>
  <path d="M75.24,67.39 C75.54,62.35 78.35,49.95 78.35,49.95 C79.08,45.85 75.35,44.85 72.82,46.13 C65.63,49.77 57.99,54.89 53.29,55.29 C47.69,55.77 47.03,49.75 47.11,46.53 C41.83,53.11 37.38,60.6 34.15,69.14 L74.62,92.06 C87.46,58.7 106.33,36.03 122.45,21.47 L124,20.09 L124,17.73 C100.89,34.07 89.35,52.73 82.63,62.5 C78.38,68.67 75,71.4 75.24,67.39 Z" fill="url(#SVGID_4_)"/>
  <path d="M29.58,49.88 L46.36,60.7 C47.65,61.53 49.28,61.59 50.63,60.87 L67.88,51.55 C69.9,50.6 72.13,52.37 71.66,54.55 L66.2,72.98 C65.76,74.47 66.18,76.08 67.29,77.17 L81.9,91.5 C83.43,93.13 82.43,95.8 80.21,96.02 L60.49,97.11 C58.98,97.19 57.62,98.09 56.95,99.45 L48.24,117.18 C47.17,119.14 44.32,119.01 43.42,116.97 L35.94,97.92 C35.37,96.47 34.05,95.46 32.51,95.28 L13.42,93.1 C11.23,92.68 10.47,89.94 12.13,88.45 L27.45,76.21 C28.65,75.25 29.23,73.72 28.97,72.21 L25.56,52.54 C25.27,50.33 27.65,48.76 29.58,49.88 Z" fill="#FDD835"/>
  <path d="M39.79,66.36 L31.22,55.87 C30.76,55.27 29.92,54.29 30.93,53.62 C31.73,53.09 33.25,54.46 33.25,54.46 L42.61,61.23 C46.17,63.81 46.41,65.34 45.64,66.85 C44.74,68.6 42.24,69.36 39.79,66.36 Z" fill="#FFFF8D"/>
  <path d="M64.23,72.85 L68.94,58.8 C69.16,58.08 69.6,56.86 68.42,56.59 C67.49,56.38 66.54,58.19 66.54,58.19 L60.22,67.17 C58.26,69.73 57.43,72.15 58.37,73.89 C59.63,76.2 62.7,76.59 64.23,72.85 Z" fill="#F4B400"/>
  <path d="M118.09,63.75 C118.49,63.89 118.48,64.45 118.06,64.56 C114.88,65.45 112.34,67.89 111.31,71.03 C111.17,71.46 110.58,71.45 110.46,71.01 C109.58,67.84 107.15,65.29 104.01,64.25 C103.61,64.12 103.62,63.56 104.03,63.44 C107.22,62.54 109.76,60.1 110.79,56.95 C110.93,56.52 111.52,56.53 111.64,56.97 C112.53,60.15 114.96,62.71 118.09,63.75 Z" fill="#FFF176"/>
  <path d="M42.71,30.83 C43,30.92 42.99,31.33 42.7,31.42 C40.41,32.06 38.58,33.82 37.84,36.08 C37.74,36.4 37.32,36.39 37.23,36.07 C36.59,33.79 34.84,31.95 32.58,31.2 C32.29,31.1 32.3,30.69 32.59,30.61 C34.89,29.96 36.72,28.21 37.46,25.94 C37.56,25.63 37.98,25.64 38.07,25.95 C38.7,28.24 40.45,30.08 42.71,30.83 Z" fill="#FFF9C4"/>
  <path d="M14.77,41.85 C14.77,43.181 13.691,44.26 12.36,44.26 C11.029,44.26 9.95,43.181 9.95,41.85 C9.95,40.519 11.029,39.44 12.36,39.44 C13.691,39.44 14.77,40.519 14.77,41.85 Z" fill="#7BAAF7"/>
  <path d="M64,15.07 C64,17.704 61.864,19.84 59.23,19.84 C56.596,19.84 54.46,17.704 54.46,15.07 C54.46,12.436 56.596,10.3 59.23,10.3 C61.864,10.3 64,12.436 64,15.07 Z" fill="#5C6BC0"/>
  <path d="M112.61,94.45 C112.61,96.212 111.182,97.64 109.42,97.64 C107.658,97.64 106.23,96.212 106.23,94.45 C106.23,92.688 107.658,91.26 109.42,91.26 C111.182,91.26 112.61,92.688 112.61,94.45 Z" fill="#7986CB"/>
  <path d="M101.31,80.52 C101.31,81.851 100.231,82.93 98.9,82.93 C97.569,82.93 96.49,81.851 96.49,80.52 C96.49,79.189 97.569,78.11 98.9,78.11 C100.231,78.11 101.31,79.189 101.31,80.52 Z" fill="#FFF176"/>
  <path d="M22.08,17.48 C22.08,18.811 21.001,19.89 19.67,19.89 C18.339,19.89 17.26,18.811 17.26,17.48 C17.26,16.149 18.339,15.07 19.67,15.07 C21.001,15.07 22.08,16.149 22.08,17.48 Z" fill="#FFF176"/>
  <path d="M72.06,113.47 C72.06,114.801 70.981,115.88 69.65,115.88 C68.319,115.88 67.24,114.801 67.24,113.47 C67.24,112.139 68.319,111.06 69.65,111.06 C70.981,111.06 72.06,112.139 72.06,113.47 Z" fill="#7BAAF7"/>
</svg>
